Costumes/I-story-1.svg

<?xml version="1.0" encoding="utf-8"?>
<!-- Generator: Adobe Illustrator 18.0.0, SVG Export Plug-In . SVG Version: 6.00 Build 0)  -->
<!DOCTYPE svg PUBLIC "-//W3C//DTD SVG 1.1//EN" "http://www.w3.org/Graphics/SVG/1.1/DTD/svg11.dtd">
<svg version="1.1" id="Layer_2" xmlns="http://www.w3.org/2000/svg" xmlns:xlink="http://www.w3.org/1999/xlink" x="0px" y="0px"
	 viewBox="0 0 19.8 53.1" enable-background="new 0 0 19.8 53.1" xml:space="preserve">
<g>
	<path fill="#53AD4E" d="M17.8,45.2c-0.1,0-0.2,0-0.2,0c-0.9-0.1-1.5-0.4-1.6-1.4c0-0.5-0.1-0.9-0.1-1.4c0-4.5-0.1-9-0.1-13.4
		c0-3.5-0.2-7-0.1-10.5c0.1-3.7,0.3-7.4,0.5-11.1c0-0.9,0.1-1.8,0.2-2.7c0-1.1,0.6-1.8,1.7-2c0.3-0.1,0.7-0.2,1-0.2
		c0.9,0,0.8-0.6,0.8-1.2c0-0.6-0.2-1-0.8-0.9c-0.2,0-0.4-0.1-0.6-0.1H8.6V0C7.8,0,7,0,6.1,0C5.4,0,4.7,0.2,4.2,0.8c-1,1-1.9,2.1-3,3
		C0.4,4.5,0.6,5.4,0.6,6.2c0,0.4,0.2,0.5,0.7,0.5c0.8,0,1.6,0.1,2.3,0.3c0.6,0.1,1.1,0.5,1.1,1.1c0,0.9-0.1,1.8-0.1,2.7
		c-0.1,3.8-0.1,7.5-0.2,11.3c-0.2,5.1,0.4,10.2,0.1,15.3c-0.2,2.5,0.1,5,0.1,7.6c0,0.2-0.1,0.5-0.2,0.7c-1.3,1.1-2.7,2.2-4,3.2
		c-0.5,0.4-0.6,2.6-0.1,3C0.4,52,0.5,52,0.6,52c1,0.2,2,0.5,3,0.5c4.1,0.2,8.3,0.4,12.4,0.5c0.2,0,0.6-0.2,0.7-0.4
		c0.9-1.6,1.8-3.2,2.6-4.8C20.2,46.3,19.6,45.3,17.8,45.2z M1.2,5.8C1.1,5.4,1.2,5,1.7,4.5C2.8,3.4,3.8,2.2,4.8,1
		C4.8,1,4.9,0.9,5.1,0.8c0.1,0.8,0.2,1.5-0.5,2.1C3.4,3.8,2.3,4.9,1.2,5.8z M3.4,6.2c-0.4-0.1-0.9,0-1.3,0C2.1,6.1,2,6,2,6
		c1.2-1,2.4-1.9,3.4-3c0.5-0.5,1-0.6,1.6-0.6c1.3,0,1.6,0.4,1.6,1.7c0.1,7.1,0.1,14.3,0.2,21.4c0.1,4.6,0.3,9.3,0.4,13.9
		c0,1.1,0,2.2-0.2,3.2c-0.2,0.8-0.6,1.6-1.1,2.2c-0.7,0.8-1.8,0.6-2.8,0.7c0.1-1,0.2-1.9,0.2-2.8c0-3.4-0.1-6.8-0.2-10.2
		c0-4-0.1-7.9-0.1-11.8c0-3.5,0.2-7,0.2-10.6c0-0.8,0.1-1.6,0-2.4C5.1,6.7,4.3,6.3,3.4,6.2z M0.6,51c0-0.8,0-1.3,0.7-1.8
		c1.2-0.9,2.3-1.9,3.4-2.8c0.4,0.9-0.3,1.6-0.9,2.1C2.8,49.4,1.7,50.2,0.6,51z M18.2,49c-0.6,1-1.1,2-1.7,2.9
		c-0.1,0.2-0.5,0.5-0.7,0.5c-3.8-0.1-7.6-0.3-11.4-0.4c-1,0-2-0.2-3.1-0.3c1.2-1.5,3.4-2.1,4-4.2c4.4,0.2,8.8,0.4,13.4,0.6
		C18.5,48.4,18.4,48.7,18.2,49z"/>
	<path fill="#FFFFFF" d="M4.5,2.9c-1.2,0.9-2.2,2-3.3,2.9C1.1,5.4,1.2,5,1.7,4.5C2.8,3.4,3.8,2.2,4.8,1C4.8,1,4.9,0.9,5.1,0.8
		C5.2,1.6,5.2,2.3,4.5,2.9z"/>
	<path fill="#FFFFFF" d="M3.8,48.5c-1,0.9-2.1,1.6-3.2,2.5c0-0.8,0-1.3,0.7-1.8c1.2-0.9,2.3-1.9,3.4-2.8C5.1,47.3,4.4,48,3.8,48.5z"
		/>
	<path fill="#FFFFFF" d="M18.7,48c-0.2,0.4-0.3,0.7-0.5,1c-0.6,1-1.1,2-1.7,2.9c-0.1,0.2-0.5,0.5-0.7,0.5c-3.8-0.1-7.6-0.3-11.4-0.4
		c-1,0-2-0.2-3.1-0.3c1.2-1.5,3.4-2.1,4-4.2C9.8,47.6,14.2,47.8,18.7,48z"/>
	<path fill="#FFFFFF" d="M9,42.6c-0.2,0.8-0.6,1.6-1.1,2.2c-0.7,0.8-1.8,0.6-2.8,0.7c0.1-1,0.2-1.9,0.2-2.8c0-3.4-0.1-6.8-0.2-10.2
		c0-4-0.1-7.9-0.1-11.8c0-3.5,0.2-7,0.2-10.6c0-0.8,0.1-1.6,0-2.4c-0.1-1-0.9-1.4-1.9-1.5c-0.4-0.1-0.9,0-1.3,0C2.1,6.1,2,6,2,6
		c1.2-1,2.4-1.9,3.4-3c0.5-0.5,1-0.6,1.6-0.6c1.3,0,1.6,0.4,1.6,1.7c0.1,7.1,0.1,14.3,0.2,21.4c0.1,4.6,0.3,9.3,0.4,13.9
		C9.2,40.5,9.2,41.5,9,42.6z"/>
</g>
</svg>

<?xml version="1.0" encoding="UTF-8" standalone="no"?>
<!-- Generator: Adobe Illustrator 18.0.0, SVG Export Plug-In . SVG Version: 6.00 Build 0)  -->

<svg
   version="1.1"
   id="Layer_2"
   x="0px"
   y="0px"
   viewBox="0 0 19.932032 53.000002"
   enable-background="new 0 0 19.8 53.1"
   xml:space="preserve"
   sodipodi:docname="I-story-1.svg"
   width="19.932032"
   height="53"
   xmlns:inkscape="http://www.inkscape.org/namespaces/inkscape"
   xmlns:sodipodi="http://sodipodi.sourceforge.net/DTD/sodipodi-0.dtd"
   xmlns="http://www.w3.org/2000/svg"
   xmlns:svg="http://www.w3.org/2000/svg"><defs
   id="defs17" /><sodipodi:namedview
   id="namedview15"
   pagecolor="#ffffff"
   bordercolor="#000000"
   borderopacity="0.25"
   inkscape:showpageshadow="2"
   inkscape:pageopacity="0.0"
   inkscape:pagecheckerboard="0"
   inkscape:deskcolor="#d1d1d1" />
<g
   id="g12"
   transform="translate(0.02872537)">
	<path
   fill="#53ad4e"
   d="m 17.8,45.2 c -0.1,0 -0.2,0 -0.2,0 -0.9,-0.1 -1.5,-0.4 -1.6,-1.4 0,-0.5 -0.1,-0.9 -0.1,-1.4 0,-4.5 -0.1,-9 -0.1,-13.4 0,-3.5 -0.2,-7 -0.1,-10.5 0.1,-3.7 0.3,-7.4 0.5,-11.1 0,-0.9 0.1,-1.8 0.2,-2.7 0,-1.1 0.6,-1.8 1.7,-2 0.3,-0.1 0.7,-0.2 1,-0.2 0.9,0 0.8,-0.6 0.8,-1.2 0,-0.6 -0.2,-1 -0.8,-0.9 -0.2,0 -0.4,-0.1 -0.6,-0.1 H 8.6 V 0 C 7.8,0 7,0 6.1,0 5.4,0 4.7,0.2 4.2,0.8 c -1,1 -1.9,2.1 -3,3 -0.8,0.7 -0.6,1.6 -0.6,2.4 0,0.4 0.2,0.5 0.7,0.5 0.8,0 1.6,0.1 2.3,0.3 0.6,0.1 1.1,0.5 1.1,1.1 0,0.9 -0.1,1.8 -0.1,2.7 -0.1,3.8 -0.1,7.5 -0.2,11.3 -0.2,5.1 0.4,10.2 0.1,15.3 -0.2,2.5 0.1,5 0.1,7.6 0,0.2 -0.1,0.5 -0.2,0.7 -1.3,1.1 -2.7,2.2 -4,3.2 -0.5,0.4 -0.6,2.6 -0.1,3 0.1,0.1 0.2,0.1 0.3,0.1 1,0.2 2,0.5 3,0.5 4.1,0.2 8.3,0.4 12.4,0.5 0.2,0 0.6,-0.2 0.7,-0.4 0.9,-1.6 1.8,-3.2 2.6,-4.8 0.9,-1.5 0.3,-2.5 -1.5,-2.6 z M 1.2,5.8 C 1.1,5.4 1.2,5 1.7,4.5 2.8,3.4 3.8,2.2 4.8,1 4.8,1 4.9,0.9 5.1,0.8 5.2,1.6 5.3,2.3 4.6,2.9 3.4,3.8 2.3,4.9 1.2,5.8 Z M 3.4,6.2 C 3,6.1 2.5,6.2 2.1,6.2 2.1,6.1 2,6 2,6 3.2,5 4.4,4.1 5.4,3 5.9,2.5 6.4,2.4 7,2.4 c 1.3,0 1.6,0.4 1.6,1.7 0.1,7.1 0.1,14.3 0.2,21.4 0.1,4.6 0.3,9.3 0.4,13.9 0,1.1 0,2.2 -0.2,3.2 -0.2,0.8 -0.6,1.6 -1.1,2.2 -0.7,0.8 -1.8,0.6 -2.8,0.7 0.1,-1 0.2,-1.9 0.2,-2.8 C 5.3,39.3 5.2,35.9 5.1,32.5 5.1,28.5 5,24.6 5,20.7 5,17.2 5.2,13.7 5.2,10.1 5.2,9.3 5.3,8.5 5.2,7.7 5.1,6.7 4.3,6.3 3.4,6.2 Z M 0.6,51 c 0,-0.8 0,-1.3 0.7,-1.8 1.2,-0.9 2.3,-1.9 3.4,-2.8 0.4,0.9 -0.3,1.6 -0.9,2.1 -1,0.9 -2.1,1.7 -3.2,2.5 z m 17.6,-2 c -0.6,1 -1.1,2 -1.7,2.9 -0.1,0.2 -0.5,0.5 -0.7,0.5 C 12,52.3 8.2,52.1 4.4,52 c -1,0 -2,-0.2 -3.1,-0.3 1.2,-1.5 3.4,-2.1 4,-4.2 4.4,0.2 8.8,0.4 13.4,0.6 -0.2,0.3 -0.3,0.6 -0.5,0.9 z"
   id="path2" />
	<path
   fill="#ffffff"
   d="M 4.5,2.9 C 3.3,3.8 2.3,4.9 1.2,5.8 1.1,5.4 1.2,5 1.7,4.5 2.8,3.4 3.8,2.2 4.8,1 4.8,1 4.9,0.9 5.1,0.8 5.2,1.6 5.2,2.3 4.5,2.9 Z"
   id="path4" />
	<path
   fill="#ffffff"
   d="m 3.8,48.5 c -1,0.9 -2.1,1.6 -3.2,2.5 0,-0.8 0,-1.3 0.7,-1.8 1.2,-0.9 2.3,-1.9 3.4,-2.8 0.4,0.9 -0.3,1.6 -0.9,2.1 z"
   id="path6" />
	<path
   fill="#ffffff"
   d="m 18.7,48 c -0.2,0.4 -0.3,0.7 -0.5,1 -0.6,1 -1.1,2 -1.7,2.9 -0.1,0.2 -0.5,0.5 -0.7,0.5 C 12,52.3 8.2,52.1 4.4,52 c -1,0 -2,-0.2 -3.1,-0.3 1.2,-1.5 3.4,-2.1 4,-4.2 4.5,0.1 8.9,0.3 13.4,0.5 z"
   id="path8" />
	<path
   fill="#ffffff"
   d="M 9,42.6 C 8.8,43.4 8.4,44.2 7.9,44.8 7.2,45.6 6.1,45.4 5.1,45.5 5.2,44.5 5.3,43.6 5.3,42.7 5.3,39.3 5.2,35.9 5.1,32.5 5.1,28.5 5,24.6 5,20.7 5,17.2 5.2,13.7 5.2,10.1 5.2,9.3 5.3,8.5 5.2,7.7 5.1,6.7 4.3,6.3 3.3,6.2 2.9,6.1 2.4,6.2 2,6.2 2.1,6.1 2,6 2,6 3.2,5 4.4,4.1 5.4,3 5.9,2.5 6.4,2.4 7,2.4 c 1.3,0 1.6,0.4 1.6,1.7 0.1,7.1 0.1,14.3 0.2,21.4 0.1,4.6 0.3,9.3 0.4,13.9 0,1.1 0,2.1 -0.2,3.2 z"
   id="path10" />
</g>
</svg>
